static/img/gitopia-icon.svg

<svg width="50" height="50" viewBox="0 0 50 50" fill="none" xmlns="http://www.w3.org/2000/svg">
<g clip-path="url(#clip0_923_2103)">
<path d="M50 25C50 11.1929 38.8071 0 25 0C11.1929 0 0 11.1929 0 25C0 38.8071 11.1929 50 25 50C38.8071 50 50 38.8071 50 25Z" fill="url(#paint0_linear_923_2103)"/>
<path fill-rule="evenodd" clip-rule="evenodd" d="M22.4641 4.92432H27.1394V8.86651C31.7029 9.94303 35.0985 14.0302 35.0985 18.9079C35.0985 24.6067 30.4636 29.2264 24.7462 29.2264C19.0288 29.2264 14.3939 24.6067 14.3939 18.9079C14.3939 13.9907 17.8446 9.87689 22.4641 8.84098V4.92432ZM30.6218 18.9079C30.6218 22.1423 27.9912 24.7643 24.7462 24.7643C21.5012 24.7643 18.8706 22.1423 18.8706 18.9079C18.8706 15.6735 21.5012 13.0515 24.7462 13.0515C27.9912 13.0515 30.6218 15.6735 30.6218 18.9079ZM29.2611 35.6672C28.0937 36.8308 26.5104 37.4844 24.8595 37.4844C23.2085 37.4844 21.6252 36.8308 20.4578 35.6672C19.2905 34.5036 18.6346 32.9255 18.6346 31.28H14.4847C14.4847 34.0225 15.5778 36.6528 17.5234 38.5921C18.894 39.958 20.6085 40.9023 22.4641 41.3414V45.3118H27.1394V41.3679C29.0393 40.9414 30.7966 39.9864 32.1955 38.5921C34.1411 36.6528 35.2341 34.0225 35.2341 31.28H31.0843C31.0843 32.9255 30.4285 34.5036 29.2611 35.6672Z" fill="url(#paint1_linear_923_2103)"/>
</g>
<defs>
<linearGradient id="paint0_linear_923_2103" x1="27.8409" y1="3.02103e-08" x2="27.8409" y2="50" gradientUnits="userSpaceOnUse">
<stop stop-color="white"/>
<stop offset="1" stop-color="#E1D1DD"/>
</linearGradient>
<linearGradient id="paint1_linear_923_2103" x1="24.814" y1="4.92432" x2="24.814" y2="45.3118" gradientUnits="userSpaceOnUse">
<stop stop-color="#0E112C"/>
<stop offset="1" stop-color="#461847"/>
</linearGradient>
<clipPath id="clip0_923_2103">
<rect width="50" height="50" fill="white"/>
</clipPath>
</defs>
</svg>

<svg xmlns="http://www.w3.org/2000/svg" width="50" height="50" fill="none"><g clip-path="url(#a)"><path fill="url(#b)" d="M50 25C50 11.193 38.807 0 25 0S0 11.193 0 25s11.193 25 25 25 25-11.193 25-25"/><path fill="url(#c)" fill-rule="evenodd" d="M22.464 4.924h4.675v3.943c4.564 1.076 7.96 5.163 7.96 10.04 0 5.7-4.635 10.32-10.353 10.32-5.717 0-10.352-4.62-10.352-10.32 0-4.916 3.45-9.03 8.07-10.066zm8.158 13.984c0 3.234-2.63 5.856-5.876 5.856-3.245 0-5.875-2.622-5.875-5.856s2.63-5.857 5.875-5.857 5.876 2.623 5.876 5.857m-1.36 16.76a6.24 6.24 0 0 1-4.402 1.816 6.24 6.24 0 0 1-4.402-1.817 6.2 6.2 0 0 1-1.823-4.387h-4.15c0 2.742 1.093 5.373 3.038 7.312a10.4 10.4 0 0 0 4.941 2.75v3.97h4.675v-3.944a10.4 10.4 0 0 0 5.057-2.776 10.32 10.32 0 0 0 3.038-7.312h-4.15a6.2 6.2 0 0 1-1.823 4.387" clip-rule="evenodd"/></g><defs><linearGradient id="b" x1="27.841" x2="27.841" y1="0" y2="50" gradientUnits="userSpaceOnUse"><stop stop-color="#fff"/><stop offset="1" stop-color="#E1D1DD"/></linearGradient><linearGradient id="c" x1="24.814" x2="24.814" y1="4.924" y2="45.312" gradientUnits="userSpaceOnUse"><stop stop-color="#0E112C"/><stop offset="1" stop-color="#461847"/></linearGradient><clipPath id="a"><path fill="#fff" d="M0 0h50v50H0z"/></clipPath></defs></svg>
